X:1
T: League and Slasher
C:
R:Reel
Q: 232
K:D
M:4/4
L:1/8
dc|BE EE B2 Bc|B2 Bc dB AG|FD DD FD AD|FA AB A2 dc|
BE EE B2 Bc|B2 Bc dB AF|AB de fg fe|dB AF E2 dc|
|:Be ee e2 ed|Be ef gf ed|Bd dd d2 dB|AB de fe dB|
Be ee e2 ed|Be ef gf ed|B2 Bc dc dB|AF DF E2 dc:|
BE EE B2 Bc|B2 Bc dB AG|FD DD FD AD|FA AB A2 dc|
BE EE B2 Bc|B2 Bc dB AF|AB de fg fe|dB AF E2||
